X:2
T:Free Again
C:Armand Canfora & Joseph Baselli
L:1/8
M:C
I:linebreak $
K:C
"Am6" BA A6 |"AmM" z2 BA dc- c2 |"Am" BA A6 |"Gbø" z2 BA ed- d2 |"Bø" c3 B B4- Ox/||$
"F7" BBcB d2 c2 |"E7" cB-BB cBdc | cB- "_D.C. al Coda" B6 ||$Ox/"B7" (BB)cB g2 f2 ||
[K:A]"E7" =fe-ee fe=gf | fe e6 ||$"A" d3 c c4- |"D" c2 dc edcd |"G#ø" c3 B B4- |
"C#7" B2 cB dc G2 |$"F#m" B3 A"C#7" B4- |"F#m" B2 cB"C#7" d2 B2 |"F#m" B3 A A4- |
"D#ø" A2 BA G2 A2 |$"B7" c2 B4 F2 ||"Bm" c2"E7" B6 :|[K:Ab]"Ab" d3 c c4- |"Db" c2 dc edcd |$
"Gø" c3 B B4- |"C7" B2 cB dc G2 |"Fm" B3 A"C7" B4- |"Fm" B2 cB"C7" d2 B2 |$"Fm" B3 A A4- |
"Dø" A2 BA G2 A2 |"Bb7" c2 B4 F2 |"Bbm" c2"A7" d6 |"Ab" B3 A A4- | A8 |]

